X: 1
T: The Britches Full Of Stitches
R: polka
M: 2/4
L: 1/8
K: Dmaj
|:d>e fd|ed fd|d>e fd|edB2|d>e fd|ed fa|d>e dB|BA A2:|
|:~a2af|ed ef|~a2af|edb2|~a2af|ed ef|d>e dB|BA A2:|


Tune 1075	Setting 22684

